packages/dnb-ui-lib/assets/icons/funds_out_medium.svg

<svg width="24" height="24" viewBox="0 0 24 24" fill="none" xmlns="http://www.w3.org/2000/svg">
<path d="M0.75 22.5C0.335786 22.5 0 22.8358 0 23.25C0 23.6642 0.335786 24 0.75 24V22.5ZM23.25 24C23.6642 24 24 23.6642 24 23.25C24 22.8358 23.6642 22.5 23.25 22.5V24ZM21 11.5C21.4142 11.5 21.75 11.1642 21.75 10.75C21.75 10.3358 21.4142 10 21 10V11.5ZM6.75 16H7.5H6.75ZM22.5 5.25C22.5 5.66421 22.8358 6 23.25 6C23.6642 6 24 5.66421 24 5.25H22.5ZM23.25 0.75H24C24 0.335786 23.6642 0 23.25 0V0.75ZM18.75 0C18.3358 0 18 0.335786 18 0.75C18 1.16421 18.3358 1.5 18.75 1.5V0ZM18.2 5.8L17.6697 5.26967L17.6696 5.26974L18.2 5.8ZM15.963 6.364L16.1786 5.64566C16.1713 5.64347 16.164 5.6414 16.1567 5.63944L15.963 6.364ZM10.254 4.838L10.4477 4.11344L10.4474 4.11337L10.254 4.838ZM8.082 5.421L7.55173 4.89061L7.55167 4.89067L8.082 5.421ZM1.71967 10.7227C1.42678 11.0156 1.42678 11.4904 1.71967 11.7833C2.01256 12.0762 2.48744 12.0762 2.78033 11.7833L1.71967 10.7227ZM22.5 22C22.5 21.5858 22.1642 21.25 21.75 21.25C21.3358 21.25 21 21.5858 21 22H22.5ZM16.5 13C16.5 13.4142 16.8358 13.75 17.25 13.75C17.6642 13.75 18 13.4142 18 13H16.5ZM18 20C18 19.5858 17.6642 19.25 17.25 19.25C16.8358 19.25 16.5 19.5858 16.5 20H18ZM13.5 13C13.5 13.4142 13.8358 13.75 14.25 13.75C14.6642 13.75 15 13.4142 15 13H13.5ZM15 20C15 19.5858 14.6642 19.25 14.25 19.25C13.8358 19.25 13.5 19.5858 13.5 20H15ZM15.5 15.75C15.0858 15.75 14.75 16.0858 14.75 16.5C14.75 16.9142 15.0858 17.25 15.5 17.25V15.75ZM19.9697 18.4697C19.6768 18.7626 19.6768 19.2374 19.9697 19.5303C20.2626 19.8232 20.7374 19.8232 21.0303 19.5303L19.9697 18.4697ZM23 16.5L23.5303 17.0303C23.8232 16.7374 23.8232 16.2626 23.5303 15.9697L23 16.5ZM21.0303 13.4697C20.7374 13.1768 20.2626 13.1768 19.9697 13.4697C19.6768 13.7626 19.6768 14.2374 19.9697 14.5303L21.0303 13.4697ZM21 10H18V11.5H21V10ZM18 10C17.6022 10 17.2206 10.158 16.9393 10.4393L18 11.5V10ZM16.9393 10.4393C16.658 10.7206 16.5 11.1022 16.5 11.5H18L16.9393 10.4393ZM13.5 9H10.5V10.5H13.5V9ZM10.5 9C10.1022 9 9.72064 9.15804 9.43934 9.43934L10.5 10.5V9ZM9.43934 9.43934C9.15804 9.72064 9 10.1022 9 10.5H10.5L9.43934 9.43934ZM15 10.5C15 10.1022 14.842 9.72064 14.5607 9.43934L13.5 10.5H15ZM14.5607 9.43934C14.2794 9.15804 13.8978 9 13.5 9V10.5L14.5607 9.43934ZM6 14.5H3V16H6V14.5ZM3 14.5C2.60218 14.5 2.22065 14.658 1.93934 14.9393L3 16V16V14.5ZM1.93934 14.9393C1.65803 15.2206 1.5 15.6022 1.5 16H3V16L1.93934 14.9393ZM7.5 16C7.5 15.6022 7.34197 15.2206 7.06066 14.9393L6 16V16H7.5ZM7.06066 14.9393C6.77935 14.658 6.39782 14.5 6 14.5V16V16L7.06066 14.9393ZM24 5.25V0.75H22.5V5.25H24ZM23.25 0H18.75V1.5H23.25V0ZM22.7197 0.21967L17.6697 5.26967L18.7303 6.33033L23.7803 1.28033L22.7197 0.21967ZM17.6696 5.26974C17.4782 5.4612 17.2385 5.59725 16.976 5.66344L17.3427 7.11793C17.8679 6.98551 18.3474 6.71332 18.7304 6.33026L17.6696 5.26974ZM16.976 5.66344C16.7135 5.72963 16.4379 5.72348 16.1786 5.64566L15.7474 7.08234C16.2662 7.23805 16.8175 7.25034 17.3427 7.11793L16.976 5.66344ZM16.1567 5.63944L10.4477 4.11344L10.0603 5.56256L15.7693 7.08856L16.1567 5.63944ZM10.4474 4.11337C9.93897 3.97766 9.40379 3.97804 8.89555 4.11446L9.28441 5.56318C9.53861 5.49495 9.80629 5.49476 10.0606 5.56263L10.4474 4.11337ZM8.89555 4.11446C8.3873 4.25088 7.92387 4.51855 7.55173 4.89061L8.61227 5.95139C8.79841 5.76529 9.0302 5.63142 9.28441 5.56318L8.89555 4.11446ZM7.55167 4.89067L1.71967 10.7227L2.78033 11.7833L8.61233 5.95133L7.55167 4.89067ZM0.75 24H2.25V22.5H0.75V24ZM2.25 24H6.75V22.5H2.25V24ZM6.75 24H9.75V22.5H6.75V24ZM9.75 24H14.25V22.5H9.75V24ZM14.25 24H17.25V22.5H14.25V24ZM17.25 24H21.75V22.5H17.25V24ZM21.75 24H23.25V22.5H21.75V24ZM9 10.5V23.25H10.5V10.5H9ZM7.5 23.25V16H6V23.25H7.5ZM1.5 16V23.25H3V16H1.5ZM22.5 23.25V22H21V23.25H22.5ZM16.5 11.5V13H18V11.5H16.5ZM16.5 20V23.25H18V20H16.5ZM15 13V10.5H13.5V13H15ZM15 23.25V20H13.5V23.25H15ZM21.0303 19.5303L23.5303 17.0303L22.4697 15.9697L19.9697 18.4697L21.0303 19.5303ZM23.5303 15.9697L21.0303 13.4697L19.9697 14.5303L22.4697 17.0303L23.5303 15.9697ZM15.5 17.25H23V15.75H15.5V17.25Z" fill="black"/>
</svg>

<svg width="24" height="24" viewBox="0 0 24 24" fill="none" xmlns="http://www.w3.org/2000/svg"><path d="M.75 22.5a.75.75 0 000 1.5v-1.5zm22.5 1.5a.75.75 0 000-1.5V24zM21 11.5a.75.75 0 000-1.5v1.5zM6.75 16h.75-.75zM22.5 5.25a.75.75 0 001.5 0h-1.5zm.75-4.5H24a.75.75 0 00-.75-.75v.75zM18.75 0a.75.75 0 000 1.5V0zm-.55 5.8l-.53-.53.53.53zm-2.237.564l.216-.718a.78.78 0 00-.022-.007l-.194.725zm-5.709-1.526l.194-.725-.194.725zm-2.172.583l-.53-.53.53.53zM1.72 10.723a.75.75 0 101.06 1.06l-1.06-1.06zM22.5 22a.75.75 0 00-1.5 0h1.5zm-6-9a.75.75 0 001.5 0h-1.5zm1.5 7a.75.75 0 00-1.5 0H18zm-4.5-7a.75.75 0 001.5 0h-1.5zm1.5 7a.75.75 0 00-1.5 0H15zm.5-4.25a.75.75 0 000 1.5v-1.5zm4.47 2.72a.75.75 0 101.06 1.06l-1.06-1.06zM23 16.5l.53.53a.75.75 0 000-1.06l-.53.53zm-1.97-3.03a.75.75 0 10-1.06 1.06l1.06-1.06zM21 10h-3v1.5h3V10zm-3 0a1.5 1.5 0 00-1.06.44L18 11.5V10zm-1.06.44a1.5 1.5 0 00-.44 1.06H18l-1.06-1.06zM13.5 9h-3v1.5h3V9zm-3 0a1.5 1.5 0 00-1.06.44l1.06 1.06V9zm-1.06.44A1.5 1.5 0 009 10.5h1.5L9.44 9.44zM15 10.5a1.5 1.5 0 00-.44-1.06L13.5 10.5H15zm-.44-1.06A1.5 1.5 0 0013.5 9v1.5l1.06-1.06zM6 14.5H3V16h3v-1.5zm-3 0a1.5 1.5 0 00-1.06.44L3 16v-1.5zm-1.06.44A1.5 1.5 0 001.5 16H3l-1.06-1.06zM7.5 16a1.5 1.5 0 00-.44-1.06L6 16h1.5zm-.44-1.06A1.5 1.5 0 006 14.5V16l1.06-1.06zM24 5.25V.75h-1.5v4.5H24zM23.25 0h-4.5v1.5h4.5V0zm-.53.22l-5.05 5.05 1.06 1.06 5.05-5.05L22.72.22zm-5.05 5.05a1.499 1.499 0 01-.694.393l.367 1.455a3 3 0 001.387-.788l-1.06-1.06zm-.694.393a1.5 1.5 0 01-.797-.017l-.432 1.436a3 3 0 001.596.036l-.367-1.455zm-.82-.024l-5.708-1.526-.388 1.45 5.71 1.526.387-1.45zm-5.709-1.526a3 3 0 00-1.551.001l.388 1.45c.255-.069.522-.07.777-.001l.386-1.45zm-1.551.001a3.001 3.001 0 00-1.344.777l1.06 1.06c.186-.186.418-.32.672-.388l-.388-1.449zm-1.344.777L1.72 10.723l1.06 1.06 5.832-5.832-1.06-1.06zM.75 24h1.5v-1.5H.75V24zm1.5 0h4.5v-1.5h-4.5V24zm4.5 0h3v-1.5h-3V24zm3 0h4.5v-1.5h-4.5V24zm4.5 0h3v-1.5h-3V24zm3 0h4.5v-1.5h-4.5V24zm4.5 0h1.5v-1.5h-1.5V24zM9 10.5v12.75h1.5V10.5H9zM7.5 23.25V16H6v7.25h1.5zM1.5 16v7.25H3V16H1.5zm21 7.25V22H21v1.25h1.5zm-6-11.75V13H18v-1.5h-1.5zm0 8.5v3.25H18V20h-1.5zM15 13v-2.5h-1.5V13H15zm0 10.25V20h-1.5v3.25H15zm6.03-3.72l2.5-2.5-1.06-1.06-2.5 2.5 1.06 1.06zm2.5-3.56l-2.5-2.5-1.06 1.06 2.5 2.5 1.06-1.06zm-8.03 1.28H23v-1.5h-7.5v1.5z" fill="#000"/></svg>
